!!!COM: Bach, Johann Sebastian
!!!OPR: Joh. Seb. Bachs vierstimmige Choralgesänge
!!!XEN: Four-part Chorales
!!!OTL: 106. Jesu, meiner Seelen Wonne
!!!SCT: BWV 359
!!!SCA: Thematisch-systematisches Verzeichnis der musikalischen Werke Johann Sebastian Bach: Bach-Werke-Verzeichnis (Schmieder)
!!!YOR: Bach Gesellschaft Edition xxxix
!!!ENC: Steven Rasmussen
!!!CDT: 1685/3//-1750/7/28/
!!!OCY: Deutschland
!!!YEC: Copyright (c) 1994, 2000 Center for Computer Assisted Research in the Humanities
!!!YEM: Rights to all derivative editions reserved
!!!YEN: United States of America
**kern	**kern	**kern	**kern	**silbe
*I:[BASSO]	*I:[TENORE]	*I:[ALTO]	*I:[SOPRANO]	*I:[SOPRANO]
*>[A,A,B]	*>[A,A,B]	*>[A,A,B]	*>[A,A,B]	*
*>A	*>A	*>A	*>A	*
*clefF4	*clefGv2	*clefG2	*clefG2	*
*k[f#c#g#]	*k[f#c#g#]	*k[f#c#g#]	*k[f#c#g#]	*
*A:	*A:	*A:	*A:	*
*M4/4	*M4/4	*M4/4	*M4/4	*
=1-	=1-	=1-	=1-	=1-
4A	4e	4a	4cc#	Je-Je-(Je-Je-?
4F#	4f#	4a	4dd	-su,-su,-su,-su,
4C#	8eL	4g#	4ee	mei-mei-mei-mei-
.	8dJ	.	.	.
4F#	4c#	4a	4ee	-ner-ne-ner-ner
=2	=2	=2	=2	=2
4BB	4d	8aL	4dd	See-Freu-Freu-See-
.	.	8g#J	.	.
8C#L	4e	4a	4cc#	-len-den--den-len
8DJ	.	.	.	.
4E	4e	4g#	4b	Won--son-Freu-Wei-
4E;	4e;	4g#;	4b;	-ne,-ne,-de,-de,
=3	=3	=3	=3	=3
8AL	4e	4a	4cc#	Je-Je-Je-Je-
8G#J	.	.	.	.
4F#	4f#	4a	4dd	-su,-su,-su,-su,
4G#	4.e	4.b	8eeL	mei-dirmei-mei-
.	.	.	8ddJ	.
4A	.	.	4cc#	-neist-nes-ne
.	16f#LL	8a	.	.
.	16gnJJ	.	.	.
=4	=4	=4	=4	=4
4D	4f#	4a	4b	be-jaGlau-Zu-
4E	8eL	4g#	4b	-stebe--bens-ver-
.	8dJ	.	.	.
2AA;	2c#;	2e;	2a;	Lust,-wusst,Licht,-sicht,
=5:|!	=5:|!	=5:|!	=5:|!	=5:|!
*>B	*>B	*>B	*>B	*
4E	4e	4g#	4b	wieo
8DL	4e	4a#	4cc#	ichwie
8C#J	.	.	.	.
8BBL	4f#	4b	4dd	dichkÃ¶mmt
8C#J	.	.	.	.
8DL	4f#	4b	4dd	sodein
8EJ	.	.	.	.
=6	=6	=6	=6	=6
4F#	8f#L	4b	4cc#	herz-Na-
.	8gnJ	.	.	.
4F#	8f#L	4a#	4cc#	-lich-me
.	8eJ	.	.	.
2BB;	2d;	2f#;	2b;	lieb'mir
=7	=7	=7	=7	=7
4B	4d	4f#	4dd	unso
8AL	4c#	4a	4ee	michge-
8GnJ	.	.	.	.
8F#L	4d	4.a	4ff#	oh--wÃ¼nscht
8EJ	.	.	.	.
4D	4d	.	4ff#	-neund
.	.	16bLL	.	.
.	.	16ccnJJ	.	.
=8	=8	=8	=8	=8
4Gnx	4d	4b	4ee	dichlieb-
4Ax	4c#	8aL	4ee	be--lich
.	.	8gnJ	.	.
2D;	2A;	2f#;	2dd;	-trÃ¼b';fÃ¼r.
=9	=9	=9	=9	=9
8AL	4A	4e	4cc#	d'rum,Dein
8G#J	.	.	.	.
4F#	4A	4a	4dd	oGe-
4Gn	4B	8eL	4ee	Je--dÃ¤cht-
.	.	8f#J	.	.
4AA#	4c#	4gn	4ee	-su,-niss,
=10	=10	=10	=10	=10
4BB	8c#L	8f#L	4dd	kommJe-
.	8BJ	8g#J	.	.
8C#L	8BL	8eL	4cc#	zu-su,
8DJ	8AJ	8f#J	.	.
4E	4e	4g#	4b	mir,ma-
4E;	4e;	4g#;	4b;	|-chet,
=11	=11	=11	=11	=11
8AAL	4e	4a	4cc#	unddass
8AJ	.	.	.	.
8G#L	4f#	4a	4dd	bleib'mein
8F#J	.	.	.	.
8G#L	4e	8bL	8eeL	beitrau-
8EJ	.	8g#J	8ddJ	.
8AL	4e	4a	4cc#	mir-rig's
8C#J	.	.	.	.
=12	=12	=12	=12	=12
8DL	4f#	4a	4b	fÃ¼rHer-
8BBJ	.	.	.	.
4E	8eL	4g#	4b	und-ze
.	8dJ	.	.	.
2AA;	2c#;	2e;	2a;	fÃ¼r!la-\0+chet.)
==|!	==|!	==|!	==|!	==|!
!!!RNB1: * Alternative text, "Jesu, meiner Freuden Freude / Jesu, meiner Seelen Weide"
*-	*-	*-	*-	*-
!!!RWG: Key is interpreted using the Humdrum key tool.
!!!URL-pdf: https://s9.imslp.org/files/imglnks/usimg/6/6b/IMSLP24489-PMLP09471-CCARH_Bach_Chorales.pdf#page=74 Musedata edition
!!!URL-pdf: https://s9.imslp.org/files/imglnks/usimg/7/7a/IMSLP04155-Bach_-_BGA_253-438.pdf#page=58 	Bach-Gesellschaft Ausgabe, Band 39 (pp.175-276) Leipzig: Breitkopf und Härtel, 1892. Plate B.W. XXXIX.
!!!END: 1994/07/08
!!!EMD: Converted from MuseData to Humdrum Dec 19, 2000, by Andreas Kornstaedt using muse2kern.
!!!EED: Craig Stuart Sapp
!!!EEV: 2024/03/31
!!!ONB: text messed up (probably multiple verses)
!!!ONB: Some non-unicode characters
!!!filter-keyboard: satb2gs
